assets/images/svg/circle-play-solid.svg

<svg xmlns="http://www.w3.org/2000/svg" viewBox="0 0 512 512"><!--! Font Awesome Pro 6.4.0 by @fontawesome - https://fontawesome.com License - https://fontawesome.com/license (Commercial License) Copyright 2023 Fonticons, Inc. --><path d="M0 256a256 256 0 1 1 512 0A256 256 0 1 1 0 256zM188.3 147.1c-7.6 4.2-12.3 12.3-12.3 20.9V344c0 8.7 4.7 16.7 12.3 20.9s16.8 4.1 24.3-.5l144-88c7.1-4.4 11.5-12.1 11.5-20.5s-4.4-16.1-11.5-20.5l-144-88c-7.4-4.5-16.7-4.7-24.3-.5z"/></svg>

<?xml version="1.0" encoding="UTF-8" standalone="no"?>
<!DOCTYPE svg PUBLIC "-//W3C//DTD SVG 1.1//EN" "http://www.w3.org/Graphics/SVG/1.1/DTD/svg11.dtd">
<svg width="100%" height="100%" viewBox="0 0 512 512" version="1.1" xmlns="http://www.w3.org/2000/svg" xmlns:xlink="http://www.w3.org/1999/xlink" xml:space="preserve" xmlns:serif="http://www.serif.com/" style="fill-rule:evenodd;clip-rule:evenodd;stroke-linejoin:round;stroke-miterlimit:2;">
    <path d="M0,256C-0,115.563 115.563,0 256,0C396.437,-0 512,115.563 512,256C512,396.437 396.437,512 256,512C115.563,512 0,396.437 0,256ZM188.3,147.1C180.7,151.3 176,159.4 176,168L176,344C176,352.7 180.7,360.7 188.3,364.9C195.9,369.1 205.1,369 212.6,364.4L356.6,276.4C363.7,272 368.1,264.3 368.1,255.9C368.1,247.5 363.7,239.8 356.6,235.4L212.6,147.4C205.2,142.9 195.9,142.7 188.3,146.9L188.3,147.1Z" style="fill:rgb(238,179,18);fill-rule:nonzero;"/>
</svg>
